assets/img/components/global-header.svg

<svg width="272" height="144" viewBox="0 0 272 144" fill="none" xmlns="http://www.w3.org/2000/svg">
<path d="M0 76.5H272V135.5C272 139.918 268.418 143.5 264 143.5H8.00001C3.58173 143.5 0 139.918 0 135.5V76.5Z" fill="#EFF6FB"/>
<path d="M0 8.5C0 4.08172 3.58172 0.5 8 0.5H264C268.418 0.5 272 4.08172 272 8.5V32.5H0V8.5Z" fill="#EDEDED"/>
<circle cx="221.5" cy="16.5" r="5.5" fill="#BEC0C1"/>
<circle cx="244.5" cy="16.5" r="5.5" fill="#BEC0C1"/>
<path d="M110.5 19H49.3942C47.9576 19 47 17.9995 47 16.4987C47 14.9978 47.9577 14 49.3942 14H110.5C111.936 14 112.894 14.9978 112.894 16.4987C112.894 17.9995 111.936 19 110.5 19Z" fill="#D0D0CE"/>
<path d="M171.5 19L123.658 18.999C122.063 18.999 121 17.9987 121 16.4982C121 14.9976 122.063 14 123.658 14L171.5 14.001C173.094 14.001 174.158 14.9986 174.158 16.4992C174.158 17.9997 173.094 19 171.5 19Z" fill="#D0D0CE"/>
<path d="M184.5 17.5399L186.948 15.1673C187.064 15.0558 187.21 15 187.388 15C187.566 15 187.712 15.0558 187.827 15.1673C187.942 15.2788 188 15.4208 188 15.5932C188 15.7655 187.942 15.9075 187.827 16.019L184.939 18.8175C184.814 18.9392 184.667 19 184.5 19C184.333 19 184.186 18.9392 184.061 18.8175L181.173 16.019C181.058 15.9075 181 15.7655 181 15.5932C181 15.4208 181.058 15.2788 181.173 15.1673C181.288 15.0558 181.434 15 181.612 15C181.79 15 181.936 15.0558 182.052 15.1673L184.5 17.5399Z" fill="#D0D0CE"/>
<path d="M22.6809 14.8622C22.3273 14.7707 22.01 14.5102 21.628 14.5102C21.0865 14.4486 20.2609 14.4739 19.68 14.5892C19.2665 14.6791 18.935 14.7549 18.9223 15.219C18.9176 15.6294 19.4369 16.0461 19.3517 16.4661C19.1654 17.208 18.2262 17.6642 17.6263 18.032C17.4716 18.1141 17.2206 18.2356 17.1165 18.3824C16.9428 18.6287 16.9807 19.3816 17.1165 19.3832C19.257 19.3895 25.6944 19.3927 28.6668 19.3911C29.0567 19.4243 29.3124 19.6989 29.4971 20.0588C29.6865 20.3856 29.7086 20.8165 29.8649 21.1449C30.0654 21.489 30.5768 21.6326 30.8957 21.8458C31.3109 22.0936 31.6976 22.3682 32.1491 22.5751C32.3985 22.6887 32.7174 22.8118 32.8689 23.0565L32.9557 23.3975C32.9462 23.5554 32.7363 23.6769 32.6242 23.759C32.4506 23.89 32.3022 24.0337 32.2043 24.2325L32.1806 24.5467C32.3196 24.7677 32.8768 24.553 33.0662 24.4914C33.3283 24.403 33.5935 24.2847 33.8666 24.2373C35.0299 24.0305 36.2202 23.8553 37.2636 23.3028C37.412 23.2239 37.7467 23.0992 37.7877 22.9366C37.8903 22.5324 36.6922 22.9192 36.5469 22.965C36.2881 23.0565 36.0102 23.0502 35.7403 23.0897C35.142 23.1923 34.3101 23.3628 33.7197 23.3817C33.423 23.4133 33.2793 23.186 33.3488 22.8924C33.4309 22.5246 33.7718 22.2989 33.7482 21.9137C33.7008 21.1291 33.9502 20.2578 33.936 19.4653C33.8934 18.4771 34.307 17.5363 34.337 16.5576C34.3638 15.7178 34.4838 14.878 34.3812 14.043C34.2912 13.3042 34.0086 12.425 34.067 11.6798C34.0812 11.4983 34.1096 11.3862 34.1602 11.2142C34.367 10.6412 34.1712 10.0381 34.1728 9.47305C34.1744 8.7658 34.3007 8.46905 33.8476 8.38537C33.3946 8.30174 32.1238 8.42487 31.6345 8.39326C30.9478 8.41219 30.2485 8.37751 29.625 8.67107C28.8499 9.04047 28.2437 9.7098 27.7338 10.3744C27.456 10.8179 26.8925 10.9568 26.6083 11.3894C26.3194 11.7887 26.5562 12.2323 26.572 12.6696C26.591 14.0192 26.1221 13.8188 25.2555 14.5165C24.8814 14.818 24.3794 14.8764 23.9153 14.8859C23.5475 14.8954 23.0376 14.9554 22.6809 14.8622Z" fill="#D0D0CE"/>
<rect y="34.5" width="272" height="40" fill="#0E324F"/>
<path d="M93.1648 51.4972H19.8717C18.1486 51.4972 17 50.2972 17 48.497C17 46.6968 18.1487 45.5 19.8717 45.5H93.1648C94.8878 45.5 96.0365 46.6968 96.0365 48.497C96.0365 50.2972 94.8878 51.4972 93.1648 51.4972Z" fill="#457AA5"/>
<path d="M56 64.4973L19.6575 64.4963C18.063 64.4963 17 63.496 17 61.9955C17 60.4949 18.063 59.4973 19.6575 59.4973L56 59.4983C57.5945 59.4983 58.6575 60.4959 58.6575 61.9965C58.6575 63.497 57.5945 64.4973 56 64.4973Z" fill="#457AA5"/>
<path d="M142.5 55.7632L115.658 55.7622C114.063 55.7622 113 54.7619 113 53.2613C113 51.7607 114.063 50.7632 115.658 50.7632L142.5 50.7642C144.094 50.7642 145.158 51.7618 145.158 53.2624C145.158 54.7629 144.094 55.7632 142.5 55.7632Z" fill="#457AA5"/>
<path d="M182.5 55.7632L155.658 55.7622C154.063 55.7622 153 54.7619 153 53.2613C153 51.7607 154.063 50.7632 155.658 50.7632L182.5 50.7642C184.094 50.7642 185.158 51.7618 185.158 53.2624C185.158 54.7629 184.094 55.7632 182.5 55.7632Z" fill="#457AA5"/>
<path d="M222.5 55.7632L195.658 55.7622C194.063 55.7622 193 54.7619 193 53.2613C193 51.7607 194.063 50.7632 195.658 50.7632L222.5 50.7642C224.094 50.7642 225.158 51.7618 225.158 53.2624C225.158 54.7629 224.094 55.7632 222.5 55.7632Z" fill="#457AA5"/>
</svg>

<svg xmlns="http://www.w3.org/2000/svg" width="272" height="144" fill="none" viewBox="0 0 272 144"><path fill="#eff6fb" d="M0 76.5h272v59a8 8 0 0 1-8 8H8a8 8 0 0 1-8-8z"/><path fill="#ededed" d="M0 8.5a8 8 0 0 1 8-8h256a8 8 0 0 1 8 8v24H0z"/><circle cx="221.5" cy="16.5" r="5.5" fill="#bec0c1"/><circle cx="244.5" cy="16.5" r="5.5" fill="#bec0c1"/><path fill="#d0d0ce" d="M110.5 19H49.394C47.958 19 47 18 47 16.499S47.958 14 49.394 14H110.5c1.436 0 2.394.998 2.394 2.499 0 1.5-.958 2.501-2.394 2.501M171.5 19l-47.842-.001c-1.595 0-2.658-1-2.658-2.5S122.063 14 123.658 14l47.842.001c1.594 0 2.658.998 2.658 2.498S173.094 19 171.5 19M184.5 17.54l2.448-2.373a.6.6 0 0 1 .44-.167q.267 0 .439.167a.57.57 0 0 1 .173.426.57.57 0 0 1-.173.426l-2.888 2.799a.6.6 0 0 1-.439.182.6.6 0 0 1-.439-.183l-2.888-2.798a.57.57 0 0 1-.173-.426q0-.258.173-.426a.6.6 0 0 1 .439-.167q.267 0 .44.167zM22.68 14.862c-.353-.091-.67-.352-1.052-.352a7.3 7.3 0 0 0-1.948.08c-.413.09-.745.165-.758.629-.004.41.515.827.43 1.247-.187.742-1.126 1.198-1.726 1.566-.154.082-.405.204-.51.35-.173.247-.135 1 0 1.001 2.141.007 8.578.01 11.55.008.39.033.646.308.831.668.19.327.212.758.368 1.086.2.344.712.488 1.03.7.416.249.803.523 1.254.73.25.114.568.237.72.482l.087.34c-.01.158-.22.28-.332.362a1.3 1.3 0 0 0-.42.474l-.023.314c.139.22.696.006.885-.056.262-.088.527-.206.8-.254 1.164-.206 2.354-.382 3.398-.934.148-.08.483-.204.524-.366.102-.405-1.096-.018-1.241.028-.259.091-.537.085-.807.125-.598.102-1.43.273-2.02.292-.297.031-.44-.196-.371-.49.082-.367.423-.593.4-.978-.048-.785.201-1.656.187-2.449-.043-.988.371-1.929.401-2.907.027-.84.147-1.68.044-2.515-.09-.739-.372-1.618-.314-2.363.014-.182.043-.294.093-.466.207-.573.011-1.176.013-1.74.001-.708.128-1.005-.325-1.089-.453-.083-1.724.04-2.213.008-.687.02-1.387-.015-2.01.278-.775.37-1.381 1.039-1.891 1.703-.278.444-.842.583-1.126 1.015-.289.4-.052.843-.036 1.28.019 1.35-.45 1.15-1.316 1.848-.375.301-.877.36-1.34.369-.369.01-.878.07-1.235-.024"/><path fill="#0e324f" d="M0 34.5h272v40H0z"/><path fill="#457aa5" d="M93.165 51.497H19.872c-1.723 0-2.872-1.2-2.872-3s1.149-2.997 2.872-2.997h73.293c1.723 0 2.871 1.197 2.871 2.997s-1.148 3-2.871 3M56 64.497H19.658c-1.595 0-2.658-1.001-2.658-2.501s1.063-2.499 2.657-2.499L56 59.498c1.594 0 2.657.998 2.657 2.499 0 1.5-1.062 2.5-2.657 2.5M142.5 55.763h-26.842c-1.595 0-2.658-1.001-2.658-2.502s1.063-2.498 2.658-2.498l26.842.001c1.594 0 2.658.998 2.658 2.498s-1.064 2.501-2.658 2.501M182.5 55.763h-26.842c-1.595 0-2.658-1.001-2.658-2.502s1.063-2.498 2.658-2.498l26.842.001c1.594 0 2.658.998 2.658 2.498s-1.064 2.501-2.658 2.501M222.5 55.763h-26.842c-1.595 0-2.658-1.001-2.658-2.502s1.063-2.498 2.658-2.498l26.842.001c1.594 0 2.658.998 2.658 2.498s-1.064 2.501-2.658 2.501"/></svg>
